;FLAVOR:Marlin
;TIME:9288
;Filament used: 23.9424m
;Layer height: 0.4
;MINX:58.475
;MINY:51.012
;MINZ:0.2
;MAXX:176.536
;MAXY:176.541
;MAXZ:28.2
;POSTPROCESSED
;Generated with Cura_SteamEngine master
M140 S50
M105
M190 S50
M104 S190
M105
M109 S190
M82 ;absolute extrusion mode
; Ender 3 Custom Start G-code
G92 E0 ; Reset Extruder
G28 ; Home all axes
M420 S1; Load Saved Mesh
G1 Z2.0 F3000 ; Move Z Axis up little to prevent scratching of Heat Bed
G1 X0.1 Y20 Z0.3 F5000.0 ; Move to start position
G1 X0.1 Y200.0 Z0.3 F1500.0 E15 ; Draw the first line
G1 X0.4 Y200.0 Z0.3 F5000.0 ; Move to side a little
G1 X0.4 Y20 Z0.3 F1500.0 E30 ; Draw the second line
G92 E0 ; Reset Extruder
G1 Z2.0 F3000 ; Move Z Axis up little to prevent scratching of Heat Bed
G1 X5 Y20 Z0.3 F5000.0 ; Move over to prevent blob squish
G92 E0
G92 E0
G1 F2700 E-5
;LAYER_COUNT:71
;LAYER:0
M107
G0 F7500 X76.138 Y75.392 Z0.2
;TYPE:SKIRT
G1 F2700 E0
G1 F1500 X77.105 Y74.437 E0.06781
G1 X78.232 Y73.353 E0.14582
G1 X80.003 Y71.552 E0.27184
G1 X81.69 Y69.735 E0.39553
G1 X83.338 Y67.857 E0.52019
G1 X84.955 Y65.904 E0.64668
G1 X86.496 Y63.934 E0.77147
G1 X87.977 Y61.925 E0.89599
G1 X89.366 Y59.925 E1.01747
G1 X91.521 Y56.579 E1.21603
G1 X91.9 Y56.027 E1.24943
G1 X92.027 Y55.853 E1.26018
G1 X92.624 Y55.103 E1.30801
G1 X93.329 Y54.359 E1.35914
G1 X93.444 Y54.248 E1.36712
G1 X94.162 Y53.611 E1.415
G1 X94.929 Y53.036 E1.46283
G1 X95.742 Y52.528 E1.51066
G1 X96.595 Y52.088 E1.55854
G1 X97.481 Y51.722 E1.60637
G1 X98.394 Y51.43 E1.65419
G1 X99.329 Y51.216 E1.70204
G1 X100.278 Y51.08 E1.74987
G1 X101.043 Y51.029 E1.78812
G1 X101.438 Y51.018 E1.80784
G1 X101.988 Y51.012 E1.83528
G1 X132.867 Y51.012 E3.37584
G1 X133.733 Y51.023 E3.41905
G1 X134.69 Y51.077 E3.46687
G1 X135.64 Y51.21 E3.51472
G1 X136.575 Y51.422 E3.56256
G1 X137.49 Y51.711 E3.61043
G1 X138.377 Y52.075 E3.65826
G1 X139.23 Y52.512 E3.70608
G1 X140.045 Y53.018 E3.75394
G1 X140.814 Y53.591 E3.80178
G1 X141.652 Y54.342 E3.85792
G1 X141.82 Y54.508 E3.86971
G1 X142.473 Y55.21 E3.91754
G1 X143.066 Y55.963 E3.96536
G1 X143.385 Y56.43 E3.99357
G1 X143.712 Y56.937 E4.02367
G1 X144.679 Y58.483 E4.11465
G1 X146.057 Y60.553 E4.23871
G1 X147.505 Y62.598 E4.36372
G1 X149.027 Y64.626 E4.49022
G1 X150.571 Y66.566 E4.61392
G1 X152.195 Y68.492 E4.73961
G1 X153.838 Y70.332 E4.86268
G1 X155.559 Y72.154 E4.98772
G1 X158.071 Y74.64 E5.16404
G1 X158.826 Y75.358 E5.21602
G1 X159.281 Y75.803 E5.24777
G1 X159.552 Y76.077 E5.267
G1 X160.448 Y77.017 E5.33179
G1 X161.56 Y78.222 E5.41359
G1 X161.883 Y78.582 E5.43772
G1 X162.136 Y78.874 E5.457
G1 X162.872 Y79.752 E5.51415
G1 X163.934 Y81.064 E5.59837
G1 X164.351 Y81.593 E5.63197
G1 X164.574 Y81.886 E5.65034
G1 X165.206 Y82.747 E5.70363
G1 X166.152 Y84.082 E5.78526
G1 X166.556 Y84.669 E5.82081
G1 X166.752 Y84.964 E5.83848
G1 X167.356 Y85.907 E5.89435
G1 X168.222 Y87.316 E5.97686
G1 X168.598 Y87.946 E6.01346
G1 X168.783 Y88.27 E6.03208
G1 X169.404 Y89.4 E6.09641
G1 X170.172 Y90.853 E6.1784
G1 X170.375 Y91.252 E6.20073
G1 X170.528 Y91.566 E6.21816
G1 X171.025 Y92.621 E6.27634
G1 X171.12 Y92.827 E6.28766
G1 X171.764 Y94.27 E6.3665
G1 X171.994 Y94.804 E6.3955
G1 X172.133 Y95.142 E6.41374
G1 X172.587 Y96.3 E6.47579
G1 X173.15 Y97.816 E6.55647
G1 X173.32 Y98.292 E6.58169
G1 X173.442 Y98.653 E6.6007
G1 X173.845 Y99.916 E6.66684
G1 X174.277 Y101.354 E6.74175
G1 X174.456 Y101.98 E6.77423
G1 X174.554 Y102.346 E6.79314
G1 X174.827 Y103.439 E6.84934
G1 X174.876 Y103.643 E6.85981
G1 X175.233 Y105.198 E6.93941
G1 X175.343 Y105.708 E6.96543
G1 X175.417 Y106.076 E6.98416
G1 X175.621 Y107.198 E7.04106
G1 X175.88 Y108.773 E7.12069
G1 X175.981 Y109.436 E7.15415
G1 X176.032 Y109.817 E7.17332
G1 X176.166 Y110.967 E7.23109
G1 X176.341 Y112.761 E7.32101
G1 X176.385 Y113.285 E7.34725
G1 X176.41 Y113.668 E7.3664
G1 X176.473 Y114.937 E7.42979
G1 X176.523 Y116.442 E7.50491
G1 X176.535 Y117.075 E7.5365
G1 X176.536 Y117.438 E7.55461
G1 X176.52 Y118.59 E7.61209
G1 X176.515 Y118.806 E7.62287
G1 X176.462 Y120.391 E7.70199
G1 X176.438 Y120.915 E7.72816
G1 X176.414 Y121.3 E7.7474
G1 X176.329 Y122.37 E7.80095
G1 X176.311 Y122.575 E7.81122
G1 X176.165 Y124.073 E7.88631
G1 X176.083 Y124.802 E7.92291
G1 X176.039 Y125.142 E7.94001
G1 X175.892 Y126.162 E7.99143
G1 X175.86 Y126.372 E8.00202
G1 X175.591 Y128.016 E8.08513
G1 X175.512 Y128.46 E8.10763
G1 X175.443 Y128.814 E8.12563
G1 X175.148 Y130.208 E8.19671
G1 X174.82 Y131.622 E8.26913
G1 X174.668 Y132.244 E8.30108
G1 X174.566 Y132.631 E8.32104
G1 X174.218 Y133.863 E8.38491
G1 X173.745 Y135.437 E8.46691
G1 X173.596 Y135.911 E8.4917
G1 X173.471 Y136.284 E8.51133
G1 X173.045 Y137.49 E8.57514
G1 X172.468 Y139.044 E8.65784
G1 X172.309 Y139.453 E8.67973
G1 X172.172 Y139.788 E8.69779
G1 X171.71 Y140.874 E8.75667
G1 X171.62 Y141.081 E8.76793
G1 X171.028 Y142.4 E8.84006
G1 X170.729 Y143.044 E8.87548
G1 X170.563 Y143.387 E8.89449
G1 X170.106 Y144.291 E8.94503
G1 X169.316 Y145.793 E9.0297
G1 X169.011 Y146.355 E9.0616
G1 X168.834 Y146.668 E9.07954
G1 X168.243 Y147.674 E9.13775
G1 X167.386 Y149.073 E9.2196
G1 X167.008 Y149.673 E9.25498
G1 X166.806 Y149.981 E9.27335
G1 X166.213 Y150.854 E9.326
G1 X165.227 Y152.253 E9.41139
G1 X164.706 Y152.971 E9.45565
G1 X164.513 Y153.228 E9.47169
G1 X164.297 Y153.508 E9.48933
G1 X164.136 Y153.712 E9.50229
G1 X162.761 Y155.412 E9.61138
G1 X162.313 Y155.95 E9.64631
G1 X162.107 Y156.19 E9.66209
G1 X161.692 Y156.658 E9.69329
G1 X160.224 Y158.25 E9.80133
G1 X159.748 Y158.752 E9.83584
G1 X159.521 Y158.984 E9.85204
G1 X159.22 Y159.284 E9.87324
G1 X159.039 Y159.461 E9.88587
G1 X157.521 Y160.907 E9.99046
G1 X157.144 Y161.257 E10.01613
G1 X156.862 Y161.51 E10.03503
G1 X155.835 Y162.4 E10.10283
G1 X154.621 Y163.414 E10.18174
G1 X154.226 Y163.735 E10.20714
G1 X153.934 Y163.964 E10.22565
G1 X152.832 Y164.8 E10.29466
G1 X151.707 Y165.623 E10.3642
G1 X151.145 Y166.023 E10.39862
G1 X150.831 Y166.239 E10.41763
G1 X149.913 Y166.847 E10.47256
G1 X149.736 Y166.962 E10.4831
G1 X148.341 Y167.848 E10.56554
G1 X147.913 Y168.112 E10.59063
G1 X147.585 Y168.307 E10.60967
G1 X146.618 Y168.86 E10.66524
G1 X145.038 Y169.73 E10.75523
G1 X144.626 Y169.949 E10.77851
G1 X144.287 Y170.122 E10.7975
G1 X143.254 Y170.628 E10.85488
G1 X141.716 Y171.348 E10.93961
G1 X141.116 Y171.619 E10.97245
G1 X140.775 Y171.766 E10.99098
G1 X139.756 Y172.185 E11.04595
G1 X138.225 Y172.786 E11.128
G1 X138.065 Y172.848 E11.13656
G1 X137.619 Y173.015 E11.16032
G1 X137.276 Y173.137 E11.17849
G1 X136.178 Y173.509 E11.23632
G1 X135.962 Y173.58 E11.24767
G1 X134.437 Y174.062 E11.32746
G1 X133.921 Y174.218 E11.35435
G1 X133.561 Y174.32 E11.37302
G1 X132.338 Y174.646 E11.43617
G1 X130.942 Y174.994 E11.50795
G1 X130.257 Y175.154 E11.54304
G1 X129.894 Y175.233 E11.56157
G1 X128.819 Y175.447 E11.61626
G1 X127.166 Y175.747 E11.70007
G1 X126.496 Y175.859 E11.73397
G1 X126.119 Y175.915 E11.75298
G1 X124.781 Y176.09 E11.8203
G1 X123.124 Y176.277 E11.90349
G1 X122.685 Y176.321 E11.92551
G1 X122.302 Y176.353 E11.94468
G1 X121.19 Y176.427 E12.00028
G1 X119.55 Y176.508 E12.0822
G1 X118.902 Y176.532 E12.11455
G1 X118.522 Y176.539 E12.13351
G1 X117.358 Y176.541 E12.19159
G1 X115.703 Y176.515 E12.27416
G1 X114.991 Y176.494 E12.3097
G1 X114.623 Y176.477 E12.32808
G1 X113.583 Y176.411 E12.38007
G1 X111.854 Y176.272 E12.46661
G1 X111.193 Y176.21 E12.49973
G1 X110.839 Y176.17 E12.51751
G1 X109.776 Y176.034 E12.57097
G1 X109.573 Y176.006 E12.58119
G1 X107.933 Y175.766 E12.66389
G1 X107.48 Y175.693 E12.68678
G1 X107.119 Y175.628 E12.70508
G1 X106.006 Y175.412 E12.76164
G1 X105.79 Y175.368 E12.77264
G1 X104.174 Y175.021 E12.8551
G1 X103.671 Y174.905 E12.88085
G1 X103.332 Y174.821 E12.89828
G1 X102.028 Y174.477 E12.96556
G1 X100.512 Y174.047 E13.04418
G1 X99.983 Y173.89 E13.07171
G1 X99.612 Y173.773 E13.09111
G1 X98.461 Y173.387 E13.15168
G1 X97.057 Y172.892 E13.22595
G1 X96.418 Y172.656 E13.25994
G1 X96.078 Y172.525 E13.27812
G1 X95.052 Y172.108 E13.33337
G1 X93.502 Y171.444 E13.4175
G1 X92.835 Y171.148 E13.4539
G1 X92.504 Y170.994 E13.47212
G1 X91.549 Y170.531 E13.52506
G1 X90.067 Y169.782 E13.60791
G1 X89.49 Y169.481 E13.64038
G1 X89.16 Y169.301 E13.65913
G1 X88.186 Y168.749 E13.71498
G1 X87.999 Y168.641 E13.72576
G1 X86.564 Y167.79 E13.80899
G1 X86.152 Y167.538 E13.83309
G1 X85.842 Y167.342 E13.85139
G1 X84.899 Y166.723 E13.90766
G1 X83.566 Y165.815 E13.98813
G1 X82.993 Y165.413 E14.02305
G1 X82.696 Y165.197 E14.04137
G1 X81.756 Y164.489 E14.10008
G1 X81.582 Y164.355 E14.11104
G1 X80.291 Y163.342 E14.19291
G1 X79.907 Y163.032 E14.21753
G1 X79.624 Y162.796 E14.23591
G1 X78.836 Y162.117 E14.28781
G1 X77.574 Y160.994 E14.37209
G1 X77.091 Y160.552 E14.40475
G1 X76.826 Y160.301 E14.42296
G1 X75.876 Y159.369 E14.48936
G1 X74.707 Y158.179 E14.57258
G1 X74.406 Y157.864 E14.59432
G1 X74.158 Y157.596 E14.61254
G1 X73.369 Y156.716 E14.6715
G1 X73.224 Y156.551 E14.68246
G1 X72.177 Y155.336 E14.76248
G1 X71.832 Y154.924 E14.78929
G1 X71.61 Y154.651 E14.80684
G1 X70.939 Y153.798 E14.86099
G1 X70.806 Y153.626 E14.87184
G1 X69.927 Y152.464 E14.94453
G1 X69.552 Y151.955 E14.97607
G1 X69.326 Y151.638 E14.99549
G1 X68.689 Y150.709 E15.05169
G1 X67.769 Y149.318 E15.13489
G1 X67.422 Y148.777 E15.16696
G1 X67.234 Y148.471 E15.18487
G1 X66.629 Y147.453 E15.24395
G1 X66.527 Y147.278 E15.25406
G1 X65.725 Y145.87 E15.3349
G1 X65.468 Y145.403 E15.36149
G1 X65.299 Y145.084 E15.37951
G1 X64.819 Y144.143 E15.43221
G1 X64.077 Y142.627 E15.51641
G1 X64.007 Y142.483 E15.5244
G1 X63.81 Y142.065 E15.54746
G1 X63.648 Y141.704 E15.5672
G1 X63.121 Y140.475 E15.63391
G1 X62.562 Y139.114 E15.70732
G1 X62.316 Y138.488 E15.74087
G1 X62.2 Y138.178 E15.75739
G1 X61.83 Y137.145 E15.81213
G1 X61.752 Y136.922 E15.82391
G1 X61.233 Y135.37 E15.90556
G1 X61.09 Y134.924 E15.92893
G1 X60.982 Y134.568 E15.94749
G1 X60.659 Y133.436 E16.00622
G1 X60.603 Y133.232 E16.01677
G1 X60.191 Y131.675 E16.09712
G1 X60.066 Y131.174 E16.12288
G1 X59.982 Y130.81 E16.14152
G1 X59.709 Y129.536 E16.20652
G1 X59.405 Y127.995 E16.28489
G1 X59.303 Y127.435 E16.31328
G1 X59.241 Y127.058 E16.33235
G1 X59.05 Y125.757 E16.39795
G1 X58.859 Y124.289 E16.4718
G1 X58.776 Y123.57 E16.50791
G1 X58.74 Y123.21 E16.52596
G1 X58.657 Y122.205 E16.57627
G1 X58.542 Y120.478 E16.66263
G1 X58.511 Y119.88 E16.6925
G1 X58.499 Y119.524 E16.71027
G1 X58.477 Y118.306 E16.77105
G1 X58.475 Y118.09 E16.78182
G1 X58.477 Y116.516 E16.86035
G1 X58.484 Y115.982 E16.88699
G1 X58.496 Y115.587 E16.90671
G1 X58.546 Y114.535 E16.95925
G1 X58.654 Y112.838 E17.04409
G1 X58.7 Y112.232 E17.07441
G1 X58.735 Y111.863 E17.0929
G1 X58.863 Y110.712 E17.15068
G1 X58.888 Y110.506 E17.16103
G1 X59.093 Y108.932 E17.24022
G1 X59.165 Y108.434 E17.26533
G1 X59.226 Y108.059 E17.28428
G1 X59.467 Y106.718 E17.35226
G1 X59.783 Y105.118 E17.43362
G1 X59.886 Y104.631 E17.45846
G1 X59.971 Y104.261 E17.4774
G1 X60.234 Y103.193 E17.53227
G1 X60.283 Y103.001 E17.54216
G1 X60.71 Y101.393 E17.62516
G1 X60.838 Y100.938 E17.64874
G1 X60.941 Y100.592 E17.66675
G1 X61.265 Y99.565 E17.72048
G1 X61.329 Y99.368 E17.73081
G1 X61.858 Y97.794 E17.81366
G1 X62.013 Y97.352 E17.83702
G1 X62.146 Y96.991 E17.85622
G1 X62.567 Y95.908 E17.91419
G1 X63.239 Y94.263 E18.00284
G1 X63.447 Y93.773 E18.0294
G1 X63.61 Y93.408 E18.04934
G1 X64.171 Y92.208 E18.11543
G1 X64.857 Y90.798 E18.19366
G1 X65.079 Y90.357 E18.21829
G1 X65.259 Y90.015 E18.23757
G1 X65.921 Y88.806 E18.30634
G1 X66.713 Y87.423 E18.38585
G1 X66.976 Y86.975 E18.41177
G1 X67.182 Y86.637 E18.43152
G1 X67.855 Y85.579 E18.49407
G1 X68.68 Y84.325 E18.56896
G1 X69.16 Y83.617 E18.61164
G1 X69.357 Y83.335 E18.6288
G1 X69.596 Y83.005 E18.64913
G1 X69.734 Y82.819 E18.66068
G1 X71.023 Y81.114 E18.76732
G1 X71.334 Y80.714 E18.7926
G1 X71.57 Y80.421 E18.81137
G1 X72.265 Y79.585 E18.8656
G1 X72.41 Y79.414 E18.87679
G1 X73.497 Y78.159 E18.95962
G1 X73.95 Y77.65 E18.99362
G1 X74.149 Y77.432 E19.00834
G1 X74.431 Y77.131 E19.02892
G1 X74.623 Y76.932 E19.04272
G1 X76.138 Y75.392 E19.15049
G0 F7500 X76.453 Y75.925
G1 F1500 X77.521 Y74.869 E19.22542
G1 X78.652 Y73.782 E19.30369
G1 X80.447 Y71.956 E19.43143
G1 X82.138 Y70.134 E19.55545
G1 X83.811 Y68.227 E19.68201
G1 X85.407 Y66.3 E19.80684
G1 X86.958 Y64.316 E19.93248
G1 X88.464 Y62.275 E20.05903
G1 X89.886 Y60.226 E20.18346
G1 X92.026 Y56.904 E20.3806
G1 X92.385 Y56.381 E20.41225
G1 X92.512 Y56.207 E20.423
G1 X93.094 Y55.477 E20.46958
G1 X93.746 Y54.79 E20.51683
G1 X93.861 Y54.679 E20.5248
G1 X94.56 Y54.06 E20.57139
G1 X95.309 Y53.503 E20.61795
G1 X96.104 Y53.013 E20.66455
G1 X96.937 Y52.592 E20.71111
G1 X97.803 Y52.243 E20.75769
G1 X98.696 Y51.971 E20.80426
G1 X99.609 Y51.775 E20.85085
G1 X100.535 Y51.659 E20.89741
G1 X101.063 Y51.628 E20.9238
G1 X101.446 Y51.618 E20.94291
G1 X101.988 Y51.612 E20.96996
G1 X132.867 Y51.612 E22.51051
G1 X133.724 Y51.623 E22.55327
G1 X134.656 Y51.676 E22.59985
G1 X135.58 Y51.809 E22.64642
G1 X136.49 Y52.021 E22.69304
G1 X137.378 Y52.309 E22.73961
G1 X138.238 Y52.672 E22.78618
G1 X139.063 Y53.108 E22.83274
G1 X139.849 Y53.613 E22.87935
G1 X140.588 Y54.183 E22.92591
G1 X141.23 Y54.769 E22.96927
G1 X141.398 Y54.935 E22.98106
G1 X142.034 Y55.619 E23.02765
G1 X142.608 Y56.354 E23.07418
G1 X142.882 Y56.757 E23.09849
G1 X143.204 Y57.256 E23.12812
G1 X144.182 Y58.818 E23.22006
G1 X145.567 Y60.899 E23.34478
G1 X147.011 Y62.939 E23.46947
G1 X148.552 Y64.993 E23.59758
G1 X150.097 Y66.935 E23.72139
G1 X151.732 Y68.874 E23.84792
G1 X153.414 Y70.756 E23.97385
G1 X155.125 Y72.568 E24.09819
G1 X157.685 Y75.101 E24.27786
G1 X158.527 Y75.904 E24.33591
G1 X158.862 Y76.232 E24.3593
G1 X159.118 Y76.491 E24.37747
G1 X160.007 Y77.424 E24.44176
G1 X161.113 Y78.623 E24.52314
G1 X161.436 Y78.983 E24.54727
G1 X161.676 Y79.26 E24.56556
G1 X162.537 Y80.289 E24.63249
G1 X163.566 Y81.564 E24.71424
G1 X163.879 Y81.963 E24.73954
G1 X164.09 Y82.241 E24.75695
G1 X164.722 Y83.102 E24.81023
G1 X165.663 Y84.429 E24.89139
G1 X166.061 Y85.008 E24.92645
G1 X166.247 Y85.288 E24.94322
G1 X166.851 Y86.231 E24.99909
G1 X166.964 Y86.411 E25.00969
G1 X167.791 Y87.762 E25.08872
G1 X168.082 Y88.252 E25.11715
G1 X168.257 Y88.559 E25.13478
G1 X168.874 Y89.681 E25.19866
G1 X169.637 Y91.125 E25.28014
G1 X169.84 Y91.524 E25.30248
G1 X169.986 Y91.822 E25.31903
G1 X170.483 Y92.877 E25.37721
G1 X170.572 Y93.072 E25.38791
G1 X171.213 Y94.507 E25.46632
G1 X171.443 Y95.041 E25.49533
G1 X171.575 Y95.361 E25.5126
G1 X171.952 Y96.319 E25.56396
G1 X172.535 Y97.882 E25.64718
G1 X172.755 Y98.494 E25.67963
G1 X172.871 Y98.836 E25.69765
G1 X173.212 Y99.901 E25.75344
G1 X173.702 Y101.527 E25.83816
G1 X173.879 Y102.144 E25.87019
G1 X173.972 Y102.492 E25.88816
G1 X174.292 Y103.778 E25.95427
G1 X174.647 Y105.325 E26.03346
G1 X174.757 Y105.835 E26.05949
G1 X174.826 Y106.183 E26.07719
G1 X175.063 Y107.495 E26.1437
G1 X175.309 Y109.007 E26.22013
G1 X175.387 Y109.525 E26.24626
G1 X175.436 Y109.886 E26.26444
G1 X175.57 Y111.036 E26.3222
G1 X175.73 Y112.672 E26.40421
G1 X175.787 Y113.335 E26.43741
G1 X175.811 Y113.699 E26.45561
G1 X175.873 Y114.957 E26.51845
G1 X175.923 Y116.462 E26.59357
G1 X175.935 Y117.086 E26.62471
G1 X175.936 Y117.429 E26.64182
G1 X175.92 Y118.581 E26.6993
G1 X175.915 Y118.787 E26.70958
G1 X175.863 Y120.364 E26.7883
G1 X175.839 Y120.888 E26.81447
G1 X175.816 Y121.252 E26.83267
G1 X175.714 Y122.516 E26.89593
G1 X175.568 Y124.014 E26.97102
G1 X175.487 Y124.734 E27.00717
G1 X175.446 Y125.057 E27.02342
G1 X175.299 Y126.077 E27.07483
G1 X175.027 Y127.754 E27.15959
G1 X174.921 Y128.354 E27.18999
G1 X174.856 Y128.69 E27.20706
G1 X174.611 Y129.854 E27.2664
G1 X174.563 Y130.072 E27.27754
G1 X174.205 Y131.611 E27.35637
G1 X174.085 Y132.102 E27.38159
G1 X173.989 Y132.469 E27.40052
G1 X173.695 Y133.513 E27.45463
G1 X173.214 Y135.12 E27.53831
G1 X173.023 Y135.731 E27.57025
G1 X172.905 Y136.085 E27.58887
G1 X172.482 Y137.282 E27.65221
G1 X171.97 Y138.664 E27.72573
G1 X171.749 Y139.235 E27.75628
G1 X171.62 Y139.553 E27.7734
G1 X171.158 Y140.639 E27.83228
G1 X171.072 Y140.835 E27.84296
G1 X170.421 Y142.283 E27.92217
G1 X170.185 Y142.791 E27.95011
G1 X170.028 Y143.117 E27.96816
G1 X169.571 Y144.021 E28.0187
