;FLAVOR:Marlin
;TIME:2111
;Filament used: 1.34838m
;Layer height: 0.2
;MINX:51.514
;MINY:51.515
;MINZ:0.2
;MAXX:183.485
;MAXY:183.489
;MAXZ:0.4
;Generated with Cura_SteamEngine master
M140 S50
M105
M190 S50
M104 S200
M105
M109 S200
M82 ;absolute extrusion mode
; Ender 3 Custom Start G-code
G92 E0 ; Reset Extruder
G28 ; Home all axes
M420 S1; Load Saved Mesh
G1 Z2.0 F3000 ; Move Z Axis up little to prevent scratching of Heat Bed
G1 X0.1 Y20 Z0.3 F5000.0 ; Move to start position
G1 X0.1 Y200.0 Z0.3 F1500.0 E15 ; Draw the first line
G1 X0.4 Y200.0 Z0.3 F5000.0 ; Move to side a little
G1 X0.4 Y20 Z0.3 F1500.0 E30 ; Draw the second line
G92 E0 ; Reset Extruder
G1 Z2.0 F3000 ; Move Z Axis up little to prevent scratching of Heat Bed
G1 X5 Y20 Z0.3 F5000.0 ; Move over to prevent blob squish
G92 E0
G92 E0
G1 F2700 E-5
;LAYER_COUNT:2
;LAYER:0
M107
G0 F6000 X70.775 Y70.911 Z0.2
;TYPE:SKIRT
G1 F2700 E0
G1 F1200 X71.497 Y70.205 E0.03359
G1 X72.309 Y69.428 E0.07097
G1 X73.071 Y68.718 E0.10561
G1 X73.313 Y68.499 E0.11646
G1 X74.329 Y67.608 E0.16141
G1 X74.474 Y67.483 E0.16778
G1 X75.409 Y66.692 E0.20851
G1 X76.033 Y66.173 E0.2355
G1 X76.548 Y65.758 E0.2575
G1 X76.793 Y65.567 E0.26784
G1 X78.008 Y64.649 E0.31848
G1 X79.314 Y63.695 E0.37228
G1 X79.921 Y63.264 E0.39704
G1 X80.17 Y63.092 E0.4071
G1 X80.936 Y62.581 E0.43773
G1 X82.47 Y61.589 E0.49849
G1 X83.068 Y61.213 E0.52198
G1 X83.335 Y61.05 E0.53239
G1 X84.007 Y60.655 E0.55831
G1 X85.582 Y59.755 E0.61865
G1 X86.248 Y59.386 E0.64397
G1 X86.525 Y59.238 E0.65442
G1 X87.208 Y58.886 E0.67997
G1 X88.83 Y58.076 E0.74027
G1 X89.551 Y57.728 E0.7669
G1 X89.831 Y57.597 E0.77718
G1 X90.519 Y57.29 E0.80224
G1 X92.279 Y56.53 E0.866
G1 X92.927 Y56.262 E0.88933
G1 X93.196 Y56.155 E0.89896
G1 X93.945 Y55.869 E0.92562
G1 X95.555 Y55.276 E0.98269
G1 X96.343 Y54.999 E1.01047
G1 X96.623 Y54.905 E1.02029
G1 X97.477 Y54.633 E1.0501
G1 X99.223 Y54.102 E1.1108
G1 X99.902 Y53.905 E1.13432
G1 X100.204 Y53.822 E1.14473
G1 X100.957 Y53.627 E1.1706
G1 X102.73 Y53.194 E1.23131
G1 X103.48 Y53.021 E1.25691
G1 X103.792 Y52.954 E1.26752
G1 X104.601 Y52.793 E1.29496
G1 X106.416 Y52.456 E1.35636
G1 X107.124 Y52.335 E1.38024
G1 X107.407 Y52.291 E1.38977
G1 X108.202 Y52.177 E1.41648
G1 X109.986 Y51.947 E1.47631
G1 X110.742 Y51.86 E1.50162
G1 X111.046 Y51.829 E1.51178
G1 X111.833 Y51.762 E1.53805
G1 X113.521 Y51.639 E1.59435
G1 X114.437 Y51.585 E1.62487
G1 X114.74 Y51.571 E1.63495
G1 X115.61 Y51.546 E1.6639
G1 X117.365 Y51.517 E1.72228
G1 X118.148 Y51.515 E1.74832
G1 X118.455 Y51.519 E1.75854
G1 X119.241 Y51.54 E1.78469
G1 X121.145 Y51.616 E1.84807
G1 X121.797 Y51.651 E1.86978
G1 X122.111 Y51.672 E1.88025
G1 X122.929 Y51.741 E1.90755
G1 X124.755 Y51.916 E1.96856
G1 X125.704 Y52.021 E2.00032
G1 X125.948 Y52.05 E2.00849
G1 X126.336 Y52.103 E2.02152
G1 X127.646 Y52.294 E2.06555
G1 X127.883 Y52.331 E2.07353
G1 X128.924 Y52.506 E2.10864
G1 X129.222 Y52.561 E2.11872
G1 X130.901 Y52.891 E2.17563
G1 X131.548 Y53.023 E2.19759
G1 X131.771 Y53.071 E2.20518
G1 X132.555 Y53.248 E2.23191
G1 X132.801 Y53.306 E2.24032
G1 X133.146 Y53.393 E2.25215
G1 X134.817 Y53.829 E2.30959
G1 X135.42 Y53.991 E2.33036
G1 X136.232 Y54.222 E2.35843
G1 X136.518 Y54.307 E2.36836
G1 X136.902 Y54.429 E2.38176
G1 X138.869 Y55.069 E2.45056
G1 X139.069 Y55.136 E2.45757
G1 X139.793 Y55.387 E2.48306
G1 X140.088 Y55.494 E2.4935
G1 X140.752 Y55.746 E2.51712
G1 X142.514 Y56.438 E2.58008
G1 X143.349 Y56.782 E2.61012
G1 X143.633 Y56.904 E2.6204
G1 X144.423 Y57.259 E2.6492
G1 X146.223 Y58.094 E2.7152
G1 X146.848 Y58.394 E2.73826
G1 X147.137 Y58.538 E2.749
G1 X147.895 Y58.931 E2.7774
G1 X149.661 Y59.881 E2.84409
G1 X150.354 Y60.266 E2.87046
G1 X150.623 Y60.421 E2.88079
G1 X151.249 Y60.794 E2.90502
G1 X153.02 Y61.888 E2.97426
G1 X153.719 Y62.333 E3.00182
G1 X153.951 Y62.484 E3.01103
G1 X154.498 Y62.854 E3.03299
G1 X154.882 Y63.122 E3.04857
G1 X156.254 Y64.089 E3.10439
G1 X156.99 Y64.623 E3.13464
G1 X157.213 Y64.789 E3.14388
G1 X157.538 Y65.039 E3.15752
G1 X158.095 Y65.476 E3.18107
G1 X159.357 Y66.484 E3.23479
G1 X160.117 Y67.108 E3.2675
G1 X160.425 Y67.371 E3.28097
G1 X161.205 Y68.061 E3.3156
G1 X161.964 Y68.744 E3.34956
G1 X162.127 Y68.894 E3.35693
G1 X163.382 Y70.07 E3.41414
G1 X163.61 Y70.29 E3.42467
G1 X164.108 Y70.785 E3.44803
G1 X164.962 Y71.655 E3.48857
G1 X166.014 Y72.762 E3.53937
G1 X166.247 Y73.015 E3.55081
G1 X166.845 Y73.686 E3.5807
G1 X167.521 Y74.461 E3.61491
G1 X168.5 Y75.618 E3.66532
G1 X168.717 Y75.883 E3.67671
G1 X169.363 Y76.699 E3.71132
G1 X170.09 Y77.64 E3.75087
G1 X170.797 Y78.583 E3.79007
G1 X170.991 Y78.85 E3.80105
G1 X171.77 Y79.959 E3.84613
G1 X172.381 Y80.857 E3.88225
G1 X172.949 Y81.714 E3.91645
G1 X173.13 Y81.997 E3.92762
G1 X173.903 Y83.246 E3.97648
G1 X174.481 Y84.213 E4.01395
G1 X175.053 Y85.199 E4.05186
G1 X175.154 Y85.376 E4.05864
G1 X175.375 Y85.774 E4.07378
G1 X175.509 Y86.022 E4.08315
G1 X176.262 Y87.464 E4.13726
G1 X176.779 Y88.496 E4.17565
G1 X177.281 Y89.537 E4.21409
G1 X177.417 Y89.829 E4.2248
G1 X178.008 Y91.154 E4.27306
G1 X178.452 Y92.189 E4.31052
G1 X178.579 Y92.497 E4.3216
G1 X179.137 Y93.918 E4.37237
G1 X179.544 Y95 E4.41082
G1 X179.654 Y95.305 E4.42161
G1 X180.033 Y96.412 E4.46052
G1 X180.109 Y96.643 E4.46861
G1 X180.732 Y98.603 E4.53702
G1 X180.801 Y98.827 E4.54481
G1 X180.95 Y99.338 E4.56252
G1 X181.192 Y100.202 E4.59236
G1 X181.283 Y100.547 E4.60423
G1 X181.723 Y102.34 E4.66563
G1 X181.774 Y102.559 E4.67311
G1 X182.172 Y104.337 E4.73371
G1 X182.263 Y104.778 E4.74869
G1 X182.301 Y104.973 E4.75529
G1 X182.564 Y106.424 E4.80434
G1 X182.629 Y106.814 E4.81749
G1 X182.897 Y108.603 E4.87766
G1 X182.953 Y109.019 E4.89162
G1 X182.974 Y109.188 E4.89728
G1 X183.151 Y110.733 E4.94901
G1 X183.189 Y111.136 E4.96247
G1 X183.349 Y113.202 E5.03139
G1 X183.365 Y113.438 E5.03926
G1 X183.437 Y114.747 E5.08286
G1 X183.472 Y115.638 E5.11252
G1 X183.479 Y115.95 E5.1229
G1 X183.485 Y116.528 E5.14212
G1 X183.485 Y118.53 E5.20871
G1 X183.483 Y118.757 E5.21626
G1 X183.467 Y119.532 E5.24204
G1 X183.457 Y119.817 E5.25153
G1 X183.427 Y120.453 E5.27271
G1 X183.309 Y122.433 E5.33868
G1 X183.24 Y123.329 E5.36857
G1 X183.213 Y123.617 E5.37819
G1 X183.121 Y124.477 E5.40695
G1 X182.88 Y126.459 E5.47336
G1 X182.797 Y127.078 E5.49413
G1 X182.748 Y127.407 E5.5052
G1 X182.569 Y128.484 E5.54151
G1 X182.229 Y130.352 E5.60466
G1 X182.11 Y130.958 E5.6252
G1 X182.042 Y131.279 E5.63611
G1 X181.812 Y132.285 E5.67044
G1 X181.405 Y133.959 E5.72774
G1 X181.163 Y134.895 E5.75989
G1 X181.088 Y135.168 E5.76931
G1 X180.854 Y135.976 E5.79729
G1 X180.237 Y137.976 E5.8669
G1 X180.04 Y138.585 E5.88819
G1 X179.936 Y138.892 E5.89897
G1 X179.663 Y139.658 E5.92602
G1 X178.983 Y141.472 E5.99045
G1 X178.63 Y142.377 E6.02276
G1 X178.523 Y142.639 E6.03217
G1 X178.244 Y143.297 E6.05594
G1 X177.377 Y145.245 E6.12686
G1 X177.046 Y145.962 E6.15313
G1 X176.92 Y146.225 E6.16283
G1 X176.635 Y146.799 E6.18414
G1 X176.383 Y147.291 E6.20253
G1 X175.652 Y148.698 E6.25526
G1 X175.204 Y149.534 E6.28681
G1 X175.055 Y149.802 E6.29701
G1 X174.774 Y150.29 E6.31574
G1 X173.738 Y152.03 E6.38309
G1 X173.179 Y152.936 E6.4185
G1 X172.94 Y153.31 E6.43326
G1 X172.369 Y154.162 E6.46738
G1 X171.531 Y155.389 E6.5168
G1 X170.927 Y156.248 E6.55172
G1 X170.672 Y156.598 E6.56613
G1 X170.141 Y157.296 E6.5953
G1 X169.18 Y158.538 E6.64753
G1 X168.536 Y159.348 E6.68194
G1 X168.279 Y159.66 E6.69539
G1 X167.636 Y160.408 E6.7282
G1 X166.641 Y161.547 E6.7785
G1 X165.899 Y162.372 E6.8154
G1 X165.663 Y162.626 E6.82694
G1 X164.85 Y163.471 E6.86594
G1 X164.682 Y163.642 E6.87391
G1 X163.282 Y165.03 E6.93948
G1 X162.934 Y165.364 E6.95552
G1 X162.784 Y165.504 E6.96235
G1 X161.3 Y166.864 E7.0293
G1 X160.958 Y167.166 E7.04447
G1 X159.259 Y168.6 E7.11842
G1 X159.095 Y168.736 E7.1255
G1 X158.568 Y169.162 E7.14804
G1 X157.621 Y169.906 E7.1881
G1 X157.391 Y170.082 E7.19773
G1 X156.938 Y170.419 E7.21651
G1 X155.97 Y171.116 E7.25618
G1 X155.144 Y171.698 E7.28979
G1 X154.965 Y171.822 E7.29703
G1 X153.628 Y172.725 E7.35069
G1 X153.361 Y172.899 E7.36129
G1 X152.741 Y173.291 E7.38569
G1 X151.636 Y173.972 E7.42886
G1 X150.454 Y174.675 E7.4746
G1 X150.175 Y174.836 E7.48532
G1 X149.253 Y175.347 E7.52038
G1 X148.145 Y175.942 E7.56221
G1 X147.195 Y176.435 E7.59781
G1 X146.905 Y176.58 E7.60859
G1 X145.722 Y177.149 E7.65225
G1 X144.575 Y177.679 E7.69428
G1 X143.539 Y178.142 E7.73202
G1 X143.325 Y178.235 E7.73978
G1 X142.42 Y178.615 E7.77243
G1 X141.508 Y178.981 E7.80511
G1 X141.313 Y179.057 E7.81207
G1 X140.299 Y179.44 E7.84812
G1 X139.731 Y179.645 E7.86821
G1 X139.491 Y179.728 E7.87665
G1 X137.96 Y180.24 E7.93035
G1 X137.088 Y180.516 E7.96077
G1 X135.513 Y180.986 E8.01544
G1 X135.226 Y181.067 E8.02535
G1 X134.857 Y181.166 E8.03806
G1 X133.311 Y181.567 E8.09118
G1 X132.429 Y181.786 E8.12141
G1 X131.956 Y181.894 E8.13755
G1 X130.706 Y182.155 E8.18002
G1 X129.235 Y182.438 E8.22984
G1 X128.326 Y182.6 E8.26055
G1 X128.063 Y182.644 E8.26942
G1 X127.679 Y182.702 E8.28234
G1 X126.161 Y182.918 E8.33333
G1 X125.186 Y183.044 E8.36603
G1 X124.836 Y183.084 E8.37775
G1 X123.442 Y183.219 E8.42433
G1 X123.23 Y183.237 E8.43141
G1 X121.406 Y183.378 E8.49225
G1 X120.909 Y183.408 E8.50882
G1 X120.637 Y183.42 E8.51787
G1 X119.006 Y183.468 E8.57214
G1 X117.39 Y183.489 E8.62589
G1 X117.031 Y183.486 E8.63784
G1 X115.199 Y183.442 E8.69879
G1 X114.971 Y183.434 E8.70637
G1 X113.769 Y183.38 E8.74639
G1 X113.192 Y183.349 E8.76561
G1 X112.394 Y183.294 E8.79222
G1 X112.138 Y183.273 E8.80076
G1 X111.7 Y183.232 E8.81539
G1 X109.744 Y183.027 E8.8808
G1 X108.78 Y182.912 E8.91309
G1 X108.521 Y182.878 E8.92178
G1 X108.036 Y182.808 E8.93808
G1 X107.816 Y182.774 E8.94548
G1 X106.325 Y182.528 E8.99575
G1 X106.089 Y182.487 E9.00371
G1 X104.083 Y182.111 E9.07159
G1 X103.679 Y182.028 E9.08531
G1 X103.418 Y181.969 E9.09421
G1 X101.384 Y181.485 E9.16375
G1 X101.169 Y181.432 E9.17112
G1 X100.189 Y181.177 E9.2048
G1 X99.299 Y180.933 E9.23549
G1 X98.958 Y180.833 E9.24731
G1 X97.441 Y180.364 E9.30012
G1 X96.378 Y180.018 E9.3373
G1 X95.994 Y179.887 E9.3508
G1 X94.635 Y179.397 E9.39885
G1 X93.289 Y178.887 E9.44672
G1 X92.967 Y178.759 E9.45825
G1 X92.218 Y178.447 E9.48523
G1 X90.588 Y177.75 E9.5442
G1 X90.368 Y177.653 E9.55219
G1 X89.471 Y177.246 E9.58495
G1 X89.199 Y177.118 E9.59495
G1 X88.009 Y176.538 E9.63898
G1 X87.73 Y176.397 E9.64938
G1 X86.63 Y175.828 E9.69057
G1 X86.406 Y175.709 E9.69901
G1 X85.285 Y175.096 E9.7415
G1 X85.041 Y174.958 E9.75083
G1 X83.792 Y174.233 E9.79886
G1 X83.502 Y174.059 E9.81011
G1 X83.02 Y173.763 E9.82892
G1 X81.541 Y172.821 E9.88724
G1 X80.642 Y172.227 E9.92308
G1 X80.018 Y171.804 E9.94815
G1 X79.759 Y171.624 E9.95865
G1 X78.433 Y170.669 E10.013
G1 X78.26 Y170.542 E10.02013
G1 X77.329 Y169.842 E10.05888
G1 X77.037 Y169.619 E10.0711
G1 X76.78 Y169.417 E10.08197
G1 X75.319 Y168.231 E10.14456
G1 X75.141 Y168.084 E10.15223
G1 X74.227 Y167.308 E10.19211
G1 X73.919 Y167.043 E10.20563
G1 X73.747 Y166.892 E10.21324
G1 X72.909 Y166.138 E10.25073
G1 X72.639 Y165.885 E10.26304
G1 X71.175 Y164.484 E10.33044
G1 X71.002 Y164.315 E10.33848
G1 X70.389 Y163.702 E10.36731
G1 X70.202 Y163.511 E10.3762
G1 X69.821 Y163.109 E10.39463
G1 X68.441 Y161.621 E10.46212
G1 X68.288 Y161.453 E10.46968
G1 X67.763 Y160.863 E10.49595
G1 X67.591 Y160.666 E10.50465
G1 X67.229 Y160.237 E10.52332
G1 X66.183 Y158.972 E10.57791
G1 X65.615 Y158.268 E10.608
G1 X65.407 Y158.002 E10.61923
G1 X65.098 Y157.593 E10.63628
G1 X64.104 Y156.259 E10.69161
G1 X63.599 Y155.562 E10.72024
G1 X63.429 Y155.32 E10.73007
G1 X63.134 Y154.889 E10.74745
G1 X62.423 Y153.827 E10.78995
G1 X61.236 Y151.977 E10.86306
G1 X60.971 Y151.543 E10.87997
G1 X60.144 Y150.108 E10.93506
G1 X59.497 Y148.946 E10.9793
G1 X59.231 Y148.46 E10.99772
G1 X59.107 Y148.228 E11.00647
G1 X58.704 Y147.448 E11.03567
G1 X58.568 Y147.175 E11.04582
G1 X57.619 Y145.204 E11.11858
G1 X57.21 Y144.313 E11.15118
G1 X57.102 Y144.069 E11.16006
G1 X56.873 Y143.533 E11.17945
G1 X56.444 Y142.503 E11.21656
G1 X56.358 Y142.291 E11.22417
G1 X55.657 Y140.504 E11.28801
G1 X55.529 Y140.16 E11.30022
G1 X55.017 Y138.714 E11.35124
G1 X54.924 Y138.435 E11.36102
G1 X54.44 Y136.931 E11.41357
G1 X54.331 Y136.57 E11.42611
G1 X53.81 Y134.734 E11.48959
G1 X53.562 Y133.8 E11.52173
G1 X53.328 Y132.855 E11.55411
G1 X53.206 Y132.319 E11.57239
G1 X52.754 Y130.187 E11.64488
G1 X52.585 Y129.333 E11.67384
G1 X52.531 Y129.04 E11.68375
G1 X52.464 Y128.637 E11.69733
G1 X52.393 Y128.187 E11.71249
G1 X52.185 Y126.81 E11.7588
G1 X52.157 Y126.611 E11.76549
G1 X51.942 Y124.987 E11.81997
G1 X51.907 Y124.691 E11.82989
G1 X51.831 Y123.953 E11.85456
G1 X51.719 Y122.703 E11.8963
G1 X51.697 Y122.419 E11.90578
G1 X51.603 Y120.941 E11.95504
G1 X51.589 Y120.664 E11.96426
G1 X51.536 Y119.246 E12.01146
G1 X51.528 Y118.916 E12.02244
G1 X51.516 Y118.208 E12.04599
G1 X51.514 Y117.972 E12.05384
G1 X51.518 Y117.098 E12.08291
G1 X51.535 Y116.284 E12.10999
G1 X51.584 Y114.649 E12.16439
G1 X51.628 Y113.637 E12.19808
G1 X51.654 Y113.232 E12.21158
G1 X51.737 Y112.204 E12.24588
G1 X51.826 Y111.209 E12.27911
G1 X51.849 Y110.978 E12.28683
G1 X52.046 Y109.199 E12.34636
G1 X52.088 Y108.864 E12.35759
G1 X52.171 Y108.285 E12.37705
G1 X52.319 Y107.303 E12.41008
G1 X52.353 Y107.093 E12.41715
G1 X52.646 Y105.375 E12.47512
G1 X52.707 Y105.046 E12.48625
G1 X52.831 Y104.431 E12.50711
G1 X53.051 Y103.394 E12.54237
G1 X53.484 Y101.511 E12.60664
G1 X53.559 Y101.203 E12.61718
G1 X53.769 Y100.402 E12.64472
G1 X54.159 Y99.002 E12.69306
G1 X54.246 Y98.708 E12.70326
G1 X54.695 Y97.258 E12.75374
G1 X54.798 Y96.943 E12.76476
G1 X55.231 Y95.664 E12.80968
G1 X55.307 Y95.446 E12.81735
G1 X55.668 Y94.449 E12.85262
G1 X55.79 Y94.126 E12.86411
G1 X56.155 Y93.21 E12.8969
G1 X56.777 Y91.696 E12.95134
G1 X57.002 Y91.165 E12.97052
G1 X57.107 Y90.924 E12.97927
G1 X57.614 Y89.803 E13.02019
G1 X58.006 Y88.973 E13.05072
G1 X58.086 Y88.807 E13.05685
G1 X58.822 Y87.317 E13.11212
G1 X58.972 Y87.024 E13.12307
G1 X59.549 Y85.939 E13.16394
G1 X59.681 Y85.698 E13.17308
G1 X60.378 Y84.463 E13.22025
G1 X60.518 Y84.222 E13.22952
G1 X61.063 Y83.311 E13.26482
G1 X61.185 Y83.112 E13.27259
G1 X61.463 Y82.671 E13.28993
G1 X62.5 Y81.051 E13.3539
G1 X62.672 Y80.789 E13.36433
G1 X63.475 Y79.611 E13.41174
G1 X63.683 Y79.317 E13.42372
G1 X64.531 Y78.147 E13.47178
G1 X64.703 Y77.916 E13.48136
G1 X65.506 Y76.867 E13.5253
G1 X65.678 Y76.648 E13.53456
G1 X66.671 Y75.418 E13.58714
G1 X66.882 Y75.164 E13.59812
G1 X67.383 Y74.57 E13.62397
G1 X67.524 Y74.406 E13.63116
G1 X67.947 Y73.924 E13.65249
G1 X68.61 Y73.194 E13.68529
G1 X69.479 Y72.258 E13.72777
G1 X70.518 Y71.171 E13.77778
G1 X70.775 Y70.911 E13.78994
G0 F6000 X71.055 Y71.197
G1 F1200 X71.774 Y70.494 E13.82339
G1 X72.691 Y69.618 E13.86557
G1 X73.343 Y69.011 E13.8952
G1 X73.577 Y68.799 E13.9057
G1 X74.732 Y67.788 E13.95675
G1 X75.665 Y66.999 E13.99739
G1 X76.289 Y66.48 E14.02439
G1 X76.798 Y66.07 E14.04613
G1 X77.035 Y65.885 E14.05613
G1 X78.244 Y64.972 E14.10651
G1 X79.545 Y64.021 E14.16011
G1 X80.152 Y63.59 E14.18487
G1 X80.393 Y63.424 E14.19461
G1 X81.154 Y62.916 E14.22504
G1 X82.683 Y61.927 E14.28561
G1 X83.281 Y61.551 E14.3091
G1 X83.538 Y61.395 E14.3191
G1 X84.206 Y61.002 E14.34488
G1 X85.776 Y60.105 E14.40502
G1 X86.442 Y59.736 E14.43034
G1 X86.709 Y59.593 E14.44042
G1 X87.387 Y59.243 E14.46579
G1 X89.003 Y58.436 E14.52587
G1 X89.724 Y58.088 E14.5525
G1 X89.995 Y57.962 E14.56244
G1 X90.678 Y57.657 E14.58732
G1 X92.432 Y56.9 E14.65086
G1 X93.08 Y56.632 E14.67418
G1 X93.339 Y56.529 E14.68345
G1 X94.083 Y56.244 E14.70995
G1 X95.693 Y55.651 E14.76702
G1 X96.475 Y55.376 E14.79459
G1 X96.745 Y55.286 E14.80405
G1 X97.594 Y55.015 E14.83369
G1 X99.334 Y54.486 E14.89418
G1 X100.013 Y54.289 E14.9177
G1 X100.304 Y54.209 E14.92773
G1 X101.052 Y54.016 E14.95343
G1 X102.819 Y53.584 E15.01393
G1 X103.569 Y53.411 E15.03953
G1 X103.87 Y53.346 E15.04977
G1 X104.674 Y53.186 E15.07704
G1 X106.483 Y52.85 E15.13823
G1 X107.191 Y52.729 E15.16212
G1 X107.464 Y52.687 E15.17131
G1 X108.253 Y52.574 E15.19782
G1 X110.032 Y52.344 E15.25748
G1 X110.788 Y52.257 E15.28279
G1 X111.081 Y52.228 E15.29259
G1 X111.862 Y52.161 E15.31866
